src/images/notifications.svg

<svg width="24" height="24" viewBox="0 0 24 24" fill="none" xmlns="http://www.w3.org/2000/svg">
<path d="M23.3142 17.2943C23.2909 17.2757 20.8175 15.381 20.8607 10.2593C20.884 7.30533 19.9134 4.68032 18.1225 2.86848C16.5184 1.24332 14.3461 0.34498 12.0069 0.333313H11.9917C9.65373 0.34498 7.48139 1.24333 5.87606 2.86966C4.08639 4.68149 3.1134 7.30533 3.13906 10.2593C3.18223 15.311 0.782392 17.2208 0.686725 17.2943C0.383392 17.5195 0.259726 17.9127 0.377559 18.272C0.496559 18.6313 0.832548 18.8728 1.20821 18.8728H6.94823C7.06723 21.5678 9.27805 23.7262 11.9999 23.7262C14.7217 23.7262 16.9302 21.5678 17.0481 18.8728H22.7904C23.1661 18.8728 23.502 18.6325 23.6187 18.2732C23.7389 17.915 23.6152 17.5206 23.3119 17.2955L23.3142 17.2943ZM12.0011 21.9727C10.2452 21.9727 8.81605 20.5995 8.70172 18.8717H15.3004C15.1837 20.5983 13.7569 21.975 12.0011 21.975V21.9727ZM3.11106 17.1217C3.9744 15.801 4.91706 13.589 4.88906 10.243C4.86806 7.72298 5.64039 5.59732 7.12089 4.09815C8.39606 2.80665 10.1309 2.09148 12.0011 2.08331C13.8712 2.09265 15.6025 2.80666 16.8777 4.09933C18.3594 5.59849 19.1329 7.72299 19.1119 10.2442C19.0839 13.5902 20.0277 15.8033 20.891 17.1228H3.11106V17.1217Z" fill="black"/>
</svg>

<svg width="24" height="24" fill="none" xmlns="http://www.w3.org/2000/svg"><path d="M23.314 17.294c-.023-.018-2.497-1.913-2.453-7.035.023-2.954-.948-5.579-2.739-7.39C16.518 1.242 14.346.344 12.007.332h-.015c-2.338.012-4.51.91-6.116 2.537-1.79 1.811-2.763 4.435-2.737 7.39.043 5.051-2.357 6.96-2.452 7.034a.876.876 0 0 0 .521 1.579h5.74c.12 2.695 2.33 4.853 5.052 4.853 2.722 0 4.93-2.158 5.048-4.853h5.742a.87.87 0 0 0 .829-.6.872.872 0 0 0-.307-.977l.002-.002Zm-11.313 4.679a3.314 3.314 0 0 1-3.3-3.101h6.6c-.117 1.726-1.544 3.103-3.3 3.103v-.002Zm-8.89-4.851c.863-1.321 1.806-3.533 1.778-6.879-.02-2.52.751-4.646 2.232-6.145C8.396 2.807 10.13 2.091 12 2.083c1.87.01 3.601.724 4.877 2.016 1.481 1.5 2.255 3.624 2.234 6.145-.028 3.346.916 5.56 1.779 6.879H3.111v-.001Z" fill="#000"/></svg>
